svg/系统配置.svg

<svg width="120" height="120" viewBox="0 0 120 120" fill="none" xmlns="http://www.w3.org/2000/svg">
<rect width="120" height="120" fill="#F5F5F5"/>
<g clip-path="url(#clip0_0_1)">
<rect width="1440" height="1024" transform="translate(-878 -463)" fill="url(#paint0_linear_0_1)"/>
<rect width="1440" height="1024" transform="translate(-878 -463)" fill="white"/>
<rect width="120" height="120" rx="30" fill="url(#paint1_linear_0_1)"/>
<path d="M95.1597 47.8607C94.7327 46.5112 93.4517 45.604 92.0106 45.619C91.9801 45.619 91.9496 45.619 91.9191 45.619C88.2439 45.619 85.2549 42.68 85.2549 39.0438C85.2549 37.9942 85.4989 37.012 85.9411 36.1424C86.574 34.8753 86.2919 33.3533 85.2396 32.3937C81.0459 28.5476 75.9219 25.6686 70.226 24.1166C68.7392 23.7118 67.1608 24.394 66.4593 25.7436C65.3537 27.8878 63.0967 29.3348 60.5118 29.3348C57.927 29.3348 55.6776 27.8878 54.5643 25.7436C53.8628 24.3865 52.2921 23.7118 50.7976 24.1166C45.1094 25.6686 39.9854 28.5476 35.784 32.3937C34.7394 33.3533 34.4496 34.8753 35.0825 36.1424C35.5171 37.012 35.7688 37.9942 35.7688 39.0438C35.7688 42.68 32.7798 45.619 29.1045 45.619C29.074 45.619 29.0435 45.619 29.013 45.619C27.5796 45.5965 26.2986 46.5112 25.8639 47.8607C24.7812 51.2495 24.2017 54.8557 24.2017 58.5894C24.2017 61.056 24.4533 63.4626 24.9413 65.7868C25.2768 67.3912 26.7866 68.4859 28.4412 68.3284C28.6623 68.3059 28.8834 68.2984 29.1045 68.2984C32.7798 68.2984 35.7688 71.2374 35.7688 74.8736C35.7688 76.493 35.1816 77.97 34.198 79.1096C33.1305 80.3616 33.1915 82.1985 34.3429 83.3831C38.6281 87.769 44.0419 91.0828 50.1266 92.8672C51.8193 93.362 53.6112 92.4323 54.1526 90.7754C55.0142 88.1214 57.5381 86.2095 60.5042 86.2095C63.4703 86.2095 65.9942 88.1214 66.8558 90.7754C67.3972 92.4323 69.1814 93.362 70.8818 92.8672C76.9741 91.0828 82.3879 87.769 86.6655 83.3831C87.8169 82.206 87.8779 80.3616 86.8104 79.1096C85.8268 77.9625 85.2396 76.493 85.2396 74.8736C85.2396 71.2374 88.2286 68.2984 91.9039 68.2984C92.1326 68.2984 92.3537 68.3059 92.5672 68.3284C94.2218 68.4859 95.7392 67.3912 96.0671 65.7868C96.5475 63.4551 96.8067 61.0485 96.8067 58.5894C96.8067 54.8557 96.2272 51.2495 95.1445 47.8607H95.1597ZM60.5194 72.5569C52.6276 72.5569 46.2226 66.2666 46.2226 58.4994C46.2226 50.7322 52.62 44.4419 60.5194 44.4419C68.4189 44.4419 74.8163 50.7322 74.8163 58.4994C74.8163 66.2666 68.4189 72.5569 60.5194 72.5569Z" fill="url(#paint2_linear_0_1)" stroke="url(#paint3_linear_0_1)"/>
<path opacity="0.8" d="M60 67C64.7339 67 68.5714 63.1944 68.5714 58.5C68.5714 53.8056 64.7339 50 60 50C55.2661 50 51.4286 53.8056 51.4286 58.5C51.4286 63.1944 55.2661 67 60 67Z" fill="url(#paint4_linear_0_1)"/>
</g>
<defs>
<linearGradient id="paint0_linear_0_1" x1="19" y1="19.5" x2="1412.5" y2="1024" gradientUnits="userSpaceOnUse">
<stop stop-color="#2E7EEA"/>
<stop offset="1" stop-color="#013F92"/>
</linearGradient>
<linearGradient id="paint1_linear_0_1" x1="60" y1="120" x2="60" y2="5.72204e-05" gradientUnits="userSpaceOnUse">
<stop stop-color="#8E8E93"/>
<stop offset="1" stop-color="#E5E5EA"/>
</linearGradient>
<linearGradient id="paint2_linear_0_1" x1="60.5042" y1="24" x2="60.5042" y2="93" gradientUnits="userSpaceOnUse">
<stop stop-color="#7E7E7E"/>
<stop offset="1" stop-color="#434445"/>
</linearGradient>
<linearGradient id="paint3_linear_0_1" x1="60.5042" y1="24" x2="60.5042" y2="93" gradientUnits="userSpaceOnUse">
<stop stop-color="#EDEDED"/>
<stop offset="1" stop-color="#343434"/>
</linearGradient>
<linearGradient id="paint4_linear_0_1" x1="60" y1="50" x2="60" y2="67" gradientUnits="userSpaceOnUse">
<stop stop-color="white"/>
<stop offset="1" stop-color="#D0D0D0"/>
</linearGradient>
<clipPath id="clip0_0_1">
<rect width="1440" height="1024" fill="white" transform="translate(-878 -463)"/>
</clipPath>
</defs>
</svg>

<svg fill="none" viewBox="0 0 120 120"><path fill="#F5F5F5" d="M0 0h120v120H0z"/><g clipPath="url(#a)"><path fill="url(#b)" d="M0 0h1440v1024H0z" transform="translate(-878 -463)"/><path fill="white" d="M-878-463H562V561H-878z"/><rect width="120" height="120" fill="url(#c)" rx="30"/><path fill="url(#d)" stroke="url(#e)" d="M95.16 47.86c-.427-1.349-1.708-2.256-3.15-2.241h-.09c-3.676 0-6.665-2.939-6.665-6.575 0-1.05.244-2.032.686-2.902a3.15 3.15 0 0 0-.701-3.748 36.34 36.34 0 0 0-15.014-8.277c-1.487-.405-3.065.277-3.767 1.627a6.67 6.67 0 0 1-5.947 3.59 6.68 6.68 0 0 1-5.948-3.59c-.701-1.357-2.272-2.032-3.766-1.627a36.44 36.44 0 0 0-15.014 8.277 3.16 3.16 0 0 0-.701 3.748c.434.87.686 1.852.686 2.902 0 3.636-2.99 6.575-6.664 6.575h-.092a3.25 3.25 0 0 0-3.15 2.242 35.2 35.2 0 0 0-1.661 10.728c0 2.467.251 4.874.74 7.198.335 1.604 1.845 2.699 3.5 2.541q.33-.032.663-.03c3.675 0 6.664 2.94 6.664 6.576a6.45 6.45 0 0 1-1.571 4.236 3.16 3.16 0 0 0 .145 4.273 36.4 36.4 0 0 0 15.784 9.484c1.692.495 3.484-.435 4.026-2.092.861-2.654 3.385-4.565 6.351-4.565s5.49 1.911 6.352 4.565c.541 1.657 2.325 2.587 4.026 2.092a36.3 36.3 0 0 0 15.783-9.484 3.16 3.16 0 0 0 .145-4.273 6.46 6.46 0 0 1-1.57-4.236c0-3.637 2.989-6.576 6.664-6.576q.344-.002.663.03c1.655.158 3.172-.937 3.5-2.541.48-2.332.74-4.739.74-7.198a35.2 35.2 0 0 0-1.663-10.728zM60.52 72.558c-7.892 0-14.297-6.29-14.297-14.058s6.397-14.057 14.296-14.057c7.9 0 14.297 6.29 14.297 14.057S68.42 72.557 60.52 72.557Z"/><path fill="url(#f)" d="M60 67c4.734 0 8.571-3.806 8.571-8.5S64.734 50 60 50s-8.571 3.806-8.571 8.5S55.266 67 60 67" opacity=".8"/></g><defs><linearGradient id="b" x1="19" x2="1412.5" y1="19.5" y2="1024" gradientUnits="userSpaceOnUse"><stop stopColor="#2E7EEA"/><stop offset="1" stopColor="#013F92"/></linearGradient><linearGradient id="c" x1="60" x2="60" y1="120" y2="0" gradientUnits="userSpaceOnUse"><stop stopColor="#8E8E93"/><stop offset="1" stopColor="#E5E5EA"/></linearGradient><linearGradient id="d" x1="60.504" x2="60.504" y1="24" y2="93" gradientUnits="userSpaceOnUse"><stop stopColor="#7E7E7E"/><stop offset="1" stopColor="#434445"/></linearGradient><linearGradient id="e" x1="60.504" x2="60.504" y1="24" y2="93" gradientUnits="userSpaceOnUse"><stop stopColor="#EDEDED"/><stop offset="1" stopColor="#343434"/></linearGradient><linearGradient id="f" x1="60" x2="60" y1="50" y2="67" gradientUnits="userSpaceOnUse"><stop stopColor="white"/><stop offset="1" stopColor="#D0D0D0"/></linearGradient><clipPath id="a"><path fill="white" d="M-878-463H562V561H-878z"/></clipPath></defs></svg>
